X: 268
T: Buck Mt.
B: canberra pickers and fiddlers
B: tunes
M:4/4
L:1/8
Q: 1/4=220
K:D
V:1 
e|:"D"fedB ABd2|(e[d2f2)](e [d3f3)]e|fedB ABd2|(e[d2f2)](e[d2f2)]ef|!
"G"gdfd edBd|(e[d2g2)](e [d2g2)]fg|1"A"a2aaa2ab|a2g2f2e2:|2"A"a2g2f2e2|"D"d6dB|]!
|:"D"A[F2A2][FA] [F2A2]dc|"G"B[G2B2][GB][G4B4]|"A"efed cABc|"D"dcde fedB|!
"D"A[F2A2][FA] [F2A2]dc|"G"B[G2B2][GB][G4B4]|"A"efed cABc|1"D"d6dB:|2"D"d8|]
% abcbook-tune_id 63ae8f1cce182cf254839810
% abcbook-tune_composer_id 
% abcbook-link-0 https://www.youtube.com/watch?v=DF1Ij4_V72g
% abcbook-boost 0
% abcbook-difficulty 0
% abcbook-tags canberra pickers and fiddlers,old time tunes,steve ryan,© free
% abcbook-tablature 
% abcbook-transpose 
% abcbook-tuning ADAE
% abcbook-lastupdated 1675154996535
% abcbook-src-url https://tunebook.net/scrape/tunes.abc
% abcbook-soundfonts 
% abcbook-repeats 1


